assets/images/mountain.svg

<svg width="37" height="25" viewBox="0 0 37 25" fill="none" xmlns="http://www.w3.org/2000/svg">
<path d="M1 22.8431L6.0575 13.3258M36.1628 22.8431L27.3491 10.8686L19.5326 18.9513L15.1582 10.8686M6.0575 13.3258L11.115 3.80859L15.1582 10.8686M6.0575 13.3258L8.92401 15.8378L11.115 12.3577L14.1381 13.3258L15.1582 10.8686" stroke="#3C4839" stroke-width="1.5"/>
</svg>

<svg width="37" height="25" fill="none" xmlns="http://www.w3.org/2000/svg"><path d="M1 22.843l5.058-9.517m30.105 9.517L27.349 10.87l-7.816 8.082-4.375-8.082m-9.1 2.457l5.057-9.517 4.043 7.06m-9.1 2.457l2.866 2.512 2.191-3.48 3.023.968 1.02-2.457" stroke="#3C4839" stroke-width="1.5"/></svg>
